!! 00000] TT[WS
!!!OTL: Hai puojia
!!!ARE: Asia, China, Shanxi Zuoquan
!! Ethnic Group: Han
!! WII, 163 (2)
!!!SCT: J0648
!!!YEM: Copyright 1995, estate of Helmut Schaffrath.
**kern
*ICvox
*Ivox
*M2/4
*k[f#c#g#]
*A:
{8b
8b
8b
8ee
=1
8dd
8cc#
4b
=2
8ee
8g#
8b
8cc#
=3
8g#
8f#
4e}
=4
{8b
4b
8ee
=5
8g#
8f#
4e
=6
8g#
8f#
8e
8B
=7
2e}
==
!!!AGN: Xiaodiao. Qingge, Aisu
!!!ONB: ESAC (Essen Associative Code) Database: CHINA
!!!AMT: simple duple
!!!AIN: vox
!!!EED: Helmut Schaffrath
!!!EEV: 1.0
*-
